X:1
T:Title
%%score [ 1 2 3 4 ]
L:1/8
Q:1/4=320
M:4/2
K:G
V:1 treble nm="Soprano"
V:2 treble nm="Alto"
V:3 treble-8 nm="Tenor"
V:4 bass nm="Bass"
V:1
 E4 | E4 E4 E4 E4 | B12 ^c4 | d6 e2 d4 ^c4 | B12 B4 | B4 B4 B4 B4 | d3 c B3 A G4 z2 B2 | %7
w: 1.Ré-|veill- ez vous, Pi-|cards,- Pi-|cards et Bour- gui-|gnons, Et|trou- vez la ma-|niè- * * * re d'a-|
w: 2.Tel|par- le de la|guerre qui|ne sait pas que|c'est, Je|vous ju- re mon|â- * * * me que|
w: 3.Où|est le duc d'Au-|triche? Il|est au Pa- ys|Bas, Il|est en Bas- se|Flan- * * * dre a-|
 B4 B4 A4 A4 | G8 z4 F4 | G4 A4 B4 c4 | B12 A4 | A4 G4 F4 E4 | D8 z4 E4 | E4 E4 E4 E4 | G8 G4 G4 | %15
w: voir de bons bâ-|tons. Car|voi- ci le prin-|temps et|aus- si la sai-|son Pour|al- ler à la|guer- re, don-|
w: c'est un pi- teux|fait Et|que maint hom- me|d'armes et|gen- til com- pa-|gnon Y|ont per- du la|vi- e, et|
w: vec- ques ses Pi-|cards Qui|nuit et jour le|prient qu'il|les veuil- le me-|ner En|la hau- te Bour-|go- gne pour|
 A4 A4 B4 B4 | G6 F2 E4 D4 | F12 G4 | A6 B2 G4 F4 | E12 |] %20
w: ner des ho- ri-|ons. * * *||||
w: robe et cha- pe-|ron. * * *||||
w: lui la con- quê-|ter. * * *||||
V:2
 E4 | E4 E4 E4 E4 | E12 E4 | F6 G2 F4 (F2 E2) | D12 D4 | D4 D4 D4 D4 | F8 G4 z2 G2 | %7
w: 1.Ré-|veill- ez vous, Pi-|cards, Pi-|cards et Bour- gui- *|gnons, Et|trou- vez la ma-|niè- re d'a-|
w: 2.Tel|par- le de la|guerre qui|ne sait pas que _|c'est, Je|vous ju- re mon|â- me que|
w: 3.Où|est le duc d'Au-|triche? Il|est au Pa- ys _|Bas, Il|est en Bas- se|Flan- dre a-|
 G4 G4 (G2 E2) F4 | D8 z4 B,4 | E4 E4 E4 E4 | F12 E4 | D4 B,4 D4 ^C4 | A,8 z4 C4 | C4 C4 C4 C4 | %14
w: voir de bons _ bâ-|tons. Car|voi- ci le prin-|temps et|aus- si la sai-|son Pour|al- ler à la|
w: c'est un pi- * teux|fait Et|que maint hom- me|d'armes et|gen- til com- pa-|gnon Y|ont per- du la|
w: vec- ques ses _ Pi-|cards Qui|nuit et jour le|prient qu'il|les veuil- le me-|ner En|la hau- te Bour-|
 D8 D4 D4 | E4 E4 D4 D4 | E4 B,8 C4 | D16 | E12 ^D4 | E12 |] %20
w: guer- re, don-|ner des ho- ri-|ons. * *||||
w: vi- e, et|robe et cha- pe-|ron. * *||||
w: go- gne pour|lui la con- quê-|ter. * *||||
V:3
 E4 | E4 E4 e4 e4 | B12 B4 | B6 B2 B4 ^A4 | F12 B4 | B4 B4 B4 B4 | A4 d3 c B4 z2 e2 | d4 d4 d4 c4 | %8
w: 1.Ré-|veill- ez vous, Pi-|cards, Pi-|cards et Bour- gui-|gnons, Et|trou- vez la ma-|niè- * * re d'a-|voir de bons bâ-|
w: 2.Tel|par- le de la|guerre qui|ne sait pas que|c'est, Je|vous ju- re mon|â- * * me que|c'est un pi- teux|
w: 3.Où|est le duc d'Aut-|riche? Il|est au Pa- ys|Bas, Il|est en Bas- se|Flan- * * dre a-|vec- ques ses Pi-|
 B8 z4 B4 | B4 A4 G4 (A2 G2) | F4 B8 E4 | F4 G4 A4 A4 | F8 z4 G4 | G4 G4 G4 G4 | G8 G4 B4 | %15
w: tons. Car|voi- ci le prin- *|temps _ et|aus- si la sai-|son Pour|al- ler à la|guer- re, don-|
w: fait Et|que maint hom- me _|d'armes _ et|gen- til com- pa-|gnon Y|ont per- du la|vi- e, et|
w: cards Qui|nuit et jour le _|prient _ qu'il|les veuil- le me-|ner En|la hau- te Bour-|go- gne pour|
 E4 E4 F4 F2 B2 | B6 A2 G8 | A8 B8 | A2 G2 F2 G2 B6 A2 | ^G12 |] %20
w: ner des ho- ri- *|ons. * *||||
w: robe et cha- pe- *|ron. * *||||
w: lui la con- quê- *|ter. * *||||
V:4
 E,4 | E,4 E,4 E,4 E,4 | G,12 G,4 | F,6 E,2 F,4 F,4 | B,,12 G,4 | G,4 G,4 G,4 G,4 | %6
w: 1.Ré-|veill- ez vous, Pi-|cards, Pi-|cards et Bour- gui-|gnons, Et|trou- vez la ma-|
w: 2.Tel|par- le de la|guerre qui|ne sait pas que|c'est Je|vous ju- re mon|
w: 3.Où|est le duc d'Au-|triche? Il|est au Pa- ys|Bas, Il|est en Bas- se|
 D,8 E,4 z2 C,2 | G,4 G,4 D,4 D,4 | G,8 z4 ^D,4 | E,4 E,4 E,4 E,4 | D,12 ^C,4 | %11
w: niè- re d'a-|voir de bons bâ-|tons. Car|voi- ci le prin-|temps et|
w: â- me que|c'est un pi- teux|fait Et|que maint hom- me|d'armes et|
w: Flan- dre a-|vec- ques ses Pi-|cards Qui|nuit et jour le|prient qu'il|
 D,4 E,4 (F,2 G,2) A,4 | D,8 z4 C,4 | C,4 C,4 C,4 C,4 | B,,8 B,,4 B,,4 | C,4 C,4 B,,4 B,,4 | %16
w: aus- si la _ sai-|son Pour|al- ler à la|guer- re, don-|ner des ho- ri-|
w: gen- til com- * pa-|gnon Y|ont per- du la|vi- e, et|robe et cha- pe-|
w: les veuil- le _ me-|ner En|la hau- te Bour-|go- gne pour|lui la con- quê-|
 E,8 G,6 F,E, | D,6 C,2 B,,8 | C,8 B,,8 | E,12 |] %20
w: ons. * * *||||
w: ron. * * *||||
w: ter. * * *||||

